!!!COM: Josephine Lang
!!!CNT: Deutsch
!!!TXO: Deutsch
!!!OTL: "O wa2rst du da"
!!!LYR: Reinhold
!!!OPS: Op. 12
!!!ONM: No. 4
!!!ENC: Alyona Dzerbina, phrasing by LVH
!!!YOR: Josephine Lang: Selected Songs
!!!YOR: Da Capo Press, 1982
!!!ODT: 1841/
!!NB: Vocal melody only encoded.
**kern
*staff1
*clefG2
*k[f#c#]
*M2/4
*MM[Andante]
2r
=2
2r
=3
2r
=4
2r
=5
2r
=6
2r
=7
4r
8r
{8A
=8!|:
4f#
4e
=9
4.a
8g
=10
4f#
4e
=11
4d
4c#}
=12
8r
{8B
8c#
8d#
=13
8e
8g
8.b
16a
=14
(4a
8g)
8f#
=15
2e}
=16
8r
{8f#
8.e
16d
=17
4a
8r
8e
=18
8dd
8dd
8.dd
16cc#
=19
4cc#
4b}
=20
8r
{(8g
8.f#
16e
=21
2b)}
=22
8r
{8e
8.g
16b
=23
4ee
4b
=24
(4dd
4f#
=25
4g)
8.B
16c#
=26
2d}
=27
2r
=28
2r
=29
2r
=30
2r
=31
2r
=32
2r
=33
2r
==
*-
